svg/plus.svg

<?xml version="1.0" encoding="UTF-8"?>
<svg xmlns="http://www.w3.org/2000/svg" xmlns:xlink="http://www.w3.org/1999/xlink" width="32" height="32" viewBox="0 0 32 32">
<path fill-rule="nonzero" fill="rgb(0%, 0%, 0%)" fill-opacity="1" d="M 16 8 C 16.882812 8 17.601562 8.714844 17.601562 9.601562 L 17.601562 14.398438 L 22.398438 14.398438 C 23.28125 14.398438 24 15.117188 24 16 C 24 16.882812 23.28125 17.601562 22.398438 17.601562 L 17.601562 17.601562 L 17.601562 22.398438 C 17.601562 23.28125 16.882812 24 16 24 C 15.117188 24 14.398438 23.28125 14.398438 22.398438 L 14.398438 17.601562 L 9.601562 17.601562 C 8.71875 17.601562 8 16.882812 8 16 C 8 15.117188 8.71875 14.398438 9.601562 14.398438 L 14.398438 14.398438 L 14.398438 9.601562 C 14.398438 8.714844 15.117188 8 16 8 M 16 8 "/>
</svg>

<svg role="img" viewBox="0 0 32 32" height="32" width="32" xmlns="http://www.w3.org/2000/svg"><path d="M16 8c.883 0 1.602.715 1.602 1.602v4.796h4.796c.883 0 1.602.72 1.602 1.602 0 .883-.719 1.602-1.602 1.602h-4.796v4.796c0 .883-.72 1.602-1.602 1.602a1.604 1.604 0 0 1-1.602-1.602v-4.796H9.602A1.604 1.604 0 0 1 8 16c0-.883.719-1.602 1.602-1.602h4.796V9.602C14.398 8.715 15.118 8 16 8m0 0"/></svg>
